assets/icons/qvision/ramen_dining.svg

<svg xmlns="http://www.w3.org/2000/svg" enable-background="new 0 0 24 24" height="24" viewBox="0 0 24 24" width="24"><g><rect fill="none" height="24" width="24"/></g><g><path d="M9,6H8V4.65l1-0.12V6z M9,12H8V7h1V12z M6,7h1v5H6V7z M6,4.88l1-0.12V6H6V4.88z M22,3V2L5,4v8H2c0,3.69,2.47,6.86,6,8.25 V22h8v-1.75c3.53-1.39,6-4.56,6-8.25H10V7h12V6H10V4.41L22,3z"/></g></svg>

<svg width="24" height="24" viewBox="0 0 24 24" fill="none" xmlns="http://www.w3.org/2000/svg">
<g clip-path="url(#clip0_147_5603)">
<path d="M9 6H8V4.65L9 4.53V6ZM9 12H8V7H9V12ZM6 7H7V12H6V7ZM6 4.88L7 4.76V6H6V4.88ZM22 3V2L5 4V12H2C2 15.69 4.47 18.86 8 20.25V22H16V20.25C19.53 18.86 22 15.69 22 12H10V7H22V6H10V4.41L22 3Z" fill="#323232"/>
</g>
<defs>
<clipPath id="clip0_147_5603">
<rect width="24" height="24" fill="white"/>
</clipPath>
</defs>
</svg>
